assets/images/svg/comingsoon.svg

<svg xmlns="http://www.w3.org/2000/svg" width="632" height="449" fill="none"><g clip-path="url(#a)"><path fill="#848789" fill-opacity=".11" d="M578.478 299.293c0-32.933-21.653-60.805-51.5-70.162 8.913-6.699 14.702-17.328 14.702-29.336 0-8.282-2.774-15.896-7.397-22.039 11.418-11.735 18.462-27.749 18.462-45.415 0-35.976-29.163-65.14-65.139-65.14-26.85 0-49.902 16.252-59.87 39.452a115.285 115.285 0 0 0-52.507-12.597c-7.554 0-14.93.749-22.08 2.129-1.198-19.199-17.104-34.413-36.605-34.413-10.076 0-19.2 4.065-25.836 10.637C279.279 58.145 261.723 49 242.023 49c-34.446 0-62.369 27.923-62.369 62.369 0 1.653.082 3.284.209 4.905-37.432 6.329-66.281 37.885-68.423 76.582-1.407-.175-2.833-.294-4.289-.294-19.08 0-34.548 15.468-34.548 34.55 0 10.724 4.886 20.307 12.555 26.645-19.03 11.763-31.713 32.808-31.713 56.823 0 36.875 29.89 66.768 66.766 66.768h393.997v-5.135c36.235-4.55 64.27-35.452 64.27-72.92"/><path fill="#fff" d="M474.209 328.999H190.56c-12.669 0-22.938-10.271-22.938-22.94V111.497c0-12.668 10.269-22.94 22.938-22.94h283.649c12.671 0 22.942 10.272 22.942 22.94v194.562c0 12.669-10.271 22.94-22.942 22.94Z"/><path fill="#33BFBF" d="M325 134.392v114.386c0 2.332 1.511 4.222 3.374 4.222 1.863 0 3.373-1.89 3.373-4.222v-15.616c0-2.225 1.441-4.029 3.221-4.029 1.779 0 3.218 1.804 3.218 4.029v50.067c0 4.291 2.782 7.771 6.211 7.771 3.429 0 6.209-3.48 6.209-7.771v-54.795c0-3.816 2.47-6.909 5.521-6.909 3.048 0 5.518 3.093 5.518 6.909v4.53c0 3.233 2.096 5.855 4.679 5.855 2.582 0 4.676-2.622 4.676-5.855V134l-46 .392Z"/><path fill="#1F2F3E" d="M496.254 104.31c-2.893-9.359-11.61-16.16-21.92-16.16H190.685c-10.307 0-19.025 6.801-21.918 16.16h327.487Z"/><path fill="#33BFBF" d="M224.998 104v34.61h55.08v155.932a4.442 4.442 0 0 1-4.442 4.441 5.615 5.615 0 0 1-5.616-5.614v-21.718c0-5.493-4.454-9.947-9.947-9.947a7.536 7.536 0 0 0-7.535 7.537v3.688c0 5.969-4.839 10.808-10.809 10.808h-.694c-6.212 0-11.248-5.036-11.248-11.248v-7.671a3.593 3.593 0 0 0-7.184 0v9.819a2.874 2.874 0 0 1-5.749 0v-8.587a5.303 5.303 0 1 0-10.604 0v31.188a4.756 4.756 0 0 1-9.511 0v-20.684a2.876 2.876 0 0 0-2.874-2.876H182.78a2.873 2.873 0 0 1-2.872-2.874v-11.015a2.875 2.875 0 0 0-2.875-2.874h-6.16a2.872 2.872 0 0 1-2.872-2.873V110.78s-.084-3.923 1.02-6.78h55.977"/><path fill="#EAE7F5" d="M194.648 96.652a2.595 2.595 0 1 1-5.19 0 2.595 2.595 0 0 1 5.19 0ZM214.923 96.652a2.595 2.595 0 1 1-5.187 0 2.595 2.595 0 0 1 5.187 0ZM204.959 96.652a2.594 2.594 0 1 1-5.19 0 2.594 2.594 0 1 1 5.19 0Z"/><path fill="#E9E9E9" d="M601.18 382.856c0 10.108-130.549 18.299-291.589 18.299C148.549 401.155 18 392.964 18 382.856c0-10.106 130.549-18.299 291.591-18.299 161.04 0 291.589 8.193 291.589 18.299Z"/><path fill="#848789" d="M199.221 335.138v34.245s12.933 6.467 31.852 0v-34.245s-15.807 4.31-31.852 0Z"/><path fill="#33BFBF" d="M211.595 346.313s-2.237.958-2.715-1.915c-.48-2.876 0-7.59 0-7.59s-6.547.563-9.659-1.67c-3.113-2.236 1.358-2.556 3.593-3.034 2.234-.48 7.662.478 11.335 0 3.671-.48 5.747-.8 8.301-.8 2.556 0 9.421.959 8.623 3.834-.8 2.872.798 26.66-1.278 26.981-2.076.32-4.311.798-5.108-6.386-.8-7.184-1.757 2.554-4.95 1.115-3.193-1.434-1.436-7.342-2.075-10.855 0 0-.419-2.473-2.516-2.473-2.095 0-1.297 2.355-3.551 2.793Z"/><path fill="#1F2F3E" d="m166.846 186.131-47.898 182.008a2.116 2.116 0 0 0 4.092 1.077l47.898-182.007a2.114 2.114 0 0 0-1.506-2.586 2.114 2.114 0 0 0-2.586 1.508M221.671 186.131l-47.897 182.008a2.117 2.117 0 0 0 4.094 1.077l47.896-182.007a2.119 2.119 0 0 0-1.509-2.586 2.112 2.112 0 0 0-2.584 1.508"/><path fill="#1F2F3E" d="M166.046 199.6h54.825a2.116 2.116 0 0 0 0-4.232h-54.825a2.117 2.117 0 0 0 0 4.232ZM159.819 224.23h54.827a2.117 2.117 0 0 0 0-4.232h-54.827a2.116 2.116 0 1 0 0 4.232Z"/><path fill="#1F2F3E" stroke="#000" d="M153.593 248.358h54.826a1.617 1.617 0 0 0 0-3.232h-54.826a1.617 1.617 0 0 0 0 3.232Z"/><path fill="#1F2F3E" d="M147.366 273.488h54.826a2.116 2.116 0 1 0 0-4.232h-54.826a2.117 2.117 0 0 0 0 4.232M139.704 298.119h54.825a2.116 2.116 0 1 0 0-4.232h-54.825a2.116 2.116 0 1 0 0 4.232M133.477 322.749h54.825a2.117 2.117 0 0 0 0-4.232h-54.825a2.115 2.115 0 0 0-2.116 2.116c0 1.168.945 2.116 2.116 2.116M126.18 347.379h54.826a2.117 2.117 0 0 0 0-4.232H126.18a2.116 2.116 0 1 0 0 4.232"/></g><defs><clipPath id="a"><path fill="#fff" d="M0 0h632v449H0z"/></clipPath></defs></svg>

<svg width="632" height="449" viewBox="0 0 632 449" fill="none" xmlns="http://www.w3.org/2000/svg">
<g clip-path="url(#clip0_61_1589)">
<path d="M578.478 299.293C578.478 266.36 556.825 238.488 526.978 229.131C535.891 222.432 541.68 211.803 541.68 199.795C541.68 191.513 538.906 183.899 534.283 177.756C545.701 166.021 552.745 150.007 552.745 132.341C552.745 96.3646 523.582 67.2018 487.606 67.2018C460.756 67.2018 437.704 83.4528 427.736 106.653C411.972 98.6181 394.138 94.056 375.229 94.056C367.675 94.056 360.299 94.805 353.149 96.1847C351.951 76.9862 336.045 61.7722 316.544 61.7722C306.468 61.7722 297.344 65.837 290.708 72.4093C279.279 58.1454 261.723 49 242.023 49C207.577 49 179.654 76.9227 179.654 111.369C179.654 113.022 179.736 114.653 179.863 116.274C142.431 122.603 113.582 154.159 111.44 192.856C110.033 192.681 108.607 192.562 107.151 192.562C88.0713 192.562 72.6033 208.03 72.6033 227.112C72.6033 237.836 77.4892 247.419 85.1576 253.757C66.1284 265.52 53.4451 286.565 53.4451 310.58C53.4451 347.455 83.3357 377.348 120.211 377.348H514.208V372.213C550.443 367.663 578.478 336.761 578.478 299.293" fill="#848789" fill-opacity="0.11"/>
<path d="M474.209 328.999H190.56C177.891 328.999 167.622 318.728 167.622 306.059V111.497C167.622 98.8291 177.891 88.5578 190.56 88.5578H474.209C486.88 88.5578 497.151 98.8291 497.151 111.497V306.059C497.151 318.728 486.88 328.999 474.209 328.999Z" fill="white"/>
<path d="M325 134.392V248.778C325 251.11 326.511 253 328.374 253C330.237 253 331.747 251.11 331.747 248.778V233.162C331.747 230.937 333.188 229.133 334.968 229.133C336.747 229.133 338.186 230.937 338.186 233.162V283.229C338.186 287.52 340.968 291 344.397 291C347.826 291 350.606 287.52 350.606 283.229V228.434C350.606 224.618 353.076 221.525 356.127 221.525C359.175 221.525 361.645 224.618 361.645 228.434V232.964C361.645 236.197 363.741 238.819 366.324 238.819C368.906 238.819 371 236.197 371 232.964V134L325 134.392Z" fill="#33BFBF"/>
<path d="M496.254 104.31C493.361 94.951 484.644 88.1501 474.334 88.1501H190.685C180.378 88.1501 171.66 94.951 168.767 104.31H496.254Z" fill="#1F2F3E"/>
<path d="M224.998 104V138.61H280.078V294.542C280.078 296.994 278.089 298.983 275.636 298.983C272.534 298.983 270.02 296.469 270.02 293.369V271.651C270.02 266.158 265.566 261.704 260.073 261.704C255.911 261.704 252.538 265.079 252.538 269.241V272.929C252.538 278.898 247.699 283.737 241.729 283.737H241.035C234.823 283.737 229.787 278.701 229.787 272.489V264.818C229.787 262.834 228.178 261.225 226.196 261.225C224.211 261.225 222.603 262.834 222.603 264.818V274.637C222.603 276.224 221.316 277.51 219.729 277.51C218.142 277.51 216.854 276.224 216.854 274.637V266.05C216.854 263.121 214.482 260.747 211.553 260.747C208.624 260.747 206.25 263.121 206.25 266.05V297.238C206.25 299.863 204.12 301.992 201.494 301.992C198.868 301.992 196.739 299.863 196.739 297.238V276.554C196.739 274.967 195.452 273.678 193.865 273.678H182.78C181.193 273.678 179.908 272.391 179.908 270.804V259.789C179.908 258.202 178.62 256.915 177.033 256.915H170.873C169.286 256.915 168.001 255.629 168.001 254.042V110.78C168.001 110.78 167.917 106.857 169.021 104H224.998" fill="#33BFBF"/>
<path d="M194.648 96.6524C194.648 98.0849 193.486 99.2466 192.054 99.2466C190.621 99.2466 189.459 98.0849 189.459 96.6524C189.459 95.2177 190.621 94.056 192.054 94.056C193.486 94.056 194.648 95.2177 194.648 96.6524Z" fill="#EAE7F5"/>
<path d="M214.923 96.6524C214.923 98.0849 213.764 99.2466 212.329 99.2466C210.897 99.2466 209.735 98.0849 209.735 96.6524C209.735 95.2177 210.897 94.056 212.329 94.056C213.764 94.056 214.923 95.2177 214.923 96.6524Z" fill="#EAE7F5"/>
<path d="M204.959 96.6524C204.959 98.0849 203.795 99.2466 202.363 99.2466C200.93 99.2466 199.769 98.0849 199.769 96.6524C199.769 95.2177 200.93 94.056 202.363 94.056C203.795 94.056 204.959 95.2177 204.959 96.6524Z" fill="#EAE7F5"/>
<path d="M601.18 382.856C601.18 392.964 470.631 401.155 309.591 401.155C148.549 401.155 18 392.964 18 382.856C18 372.75 148.549 364.557 309.591 364.557C470.631 364.557 601.18 372.75 601.18 382.856Z" fill="#E9E9E9"/>
<path d="M199.221 335.138V369.383C199.221 369.383 212.154 375.85 231.073 369.383V335.138C231.073 335.138 215.266 339.448 199.221 335.138Z" fill="#848789"/>
<path d="M211.595 346.313C211.595 346.313 209.358 347.271 208.88 344.398C208.4 341.522 208.88 336.808 208.88 336.808C208.88 336.808 202.333 337.371 199.221 335.138C196.108 332.902 200.579 332.582 202.814 332.104C205.048 331.624 210.476 332.582 214.149 332.104C217.82 331.624 219.896 331.304 222.45 331.304C225.006 331.304 231.871 332.263 231.073 335.138C230.273 338.01 231.871 361.798 229.795 362.119C227.719 362.439 225.484 362.917 224.687 355.733C223.887 348.549 222.93 358.287 219.737 356.848C216.544 355.414 218.301 349.506 217.662 345.993C217.662 345.993 217.243 343.52 215.146 343.52C213.051 343.52 213.849 345.875 211.595 346.313Z" fill="#33BFBF"/>
<path d="M166.846 186.131L118.948 368.139C118.652 369.269 119.327 370.427 120.457 370.723C121.587 371.021 122.744 370.346 123.04 369.216L170.938 187.209C171.237 186.077 170.562 184.921 169.432 184.623C168.3 184.324 167.144 184.999 166.846 186.131" fill="#1F2F3E"/>
<path d="M221.671 186.131L173.774 368.139C173.477 369.269 174.152 370.427 175.282 370.723C176.412 371.021 177.57 370.346 177.868 369.216L225.764 187.209C226.06 186.077 225.385 184.921 224.255 184.623C223.125 184.324 221.968 184.999 221.671 186.131" fill="#1F2F3E"/>
<path d="M166.046 199.6H220.871C222.04 199.6 222.987 198.652 222.987 197.484C222.987 196.316 222.04 195.368 220.871 195.368H166.046C164.878 195.368 163.93 196.316 163.93 197.484C163.93 198.652 164.878 199.6 166.046 199.6Z" fill="#1F2F3E"/>
<path d="M159.819 224.23H214.646C215.814 224.23 216.762 223.282 216.762 222.114C216.762 220.944 215.814 219.998 214.646 219.998H159.819C158.651 219.998 157.703 220.944 157.703 222.114C157.703 223.282 158.651 224.23 159.819 224.23Z" fill="#1F2F3E"/>
<path d="M153.593 248.358H208.419C209.311 248.358 210.035 247.634 210.035 246.742C210.035 245.85 209.311 245.126 208.419 245.126H153.593C152.701 245.126 151.977 245.85 151.977 246.742C151.977 247.634 152.701 248.358 153.593 248.358Z" fill="#1F2F3E" stroke="black"/>
<path d="M147.366 273.488H202.192C203.362 273.488 204.308 272.542 204.308 271.372C204.308 270.204 203.362 269.256 202.192 269.256H147.366C146.198 269.256 145.25 270.204 145.25 271.372C145.25 272.542 146.198 273.488 147.366 273.488" fill="#1F2F3E"/>
<path d="M139.704 298.119H194.529C195.697 298.119 196.645 297.173 196.645 296.003C196.645 294.835 195.697 293.887 194.529 293.887H139.704C138.534 293.887 137.588 294.835 137.588 296.003C137.588 297.173 138.534 298.119 139.704 298.119" fill="#1F2F3E"/>
<path d="M133.477 322.749H188.302C189.47 322.749 190.418 321.801 190.418 320.633C190.418 319.465 189.47 318.517 188.302 318.517H133.477C132.306 318.517 131.361 319.465 131.361 320.633C131.361 321.801 132.306 322.749 133.477 322.749" fill="#1F2F3E"/>
<path d="M126.18 347.379H181.006C182.174 347.379 183.122 346.431 183.122 345.263C183.122 344.093 182.174 343.147 181.006 343.147H126.18C125.012 343.147 124.064 344.093 124.064 345.263C124.064 346.431 125.012 347.379 126.18 347.379" fill="#1F2F3E"/>
</g>
<defs>
<clipPath id="clip0_61_1589">
<rect width="632" height="449" fill="white"/>
</clipPath>
</defs>
</svg>
